!!!COM: Music21
!!!OTL: Marcha de Riotorto
!!!OMV: pezas_marchas_marcha-de-riotorto_marcha-de-riotorto-partitura.musicxml
**kern
*part1
*staff1
*I"Bagpipes
*I'Bag
*clefG^2
*k[]
*M2/4
=1
!LO:TX:a:t=Maestoso
*MM72
!LO:TX:a:t=[quarter]=72
4.r
8gg
=||
8.cccL
16bbJk
16aaLL
16bb
16aa
16bbJJ
=
16ggLL
16aa
16gg
16ffJJ
8eeL
8eeJ
=
16ffLL
16gg
16ff
16eeJJ
8ddL
8ddJ
=
16eeLL
16ff
16ee
16ddJJ
8ccL
8ggJ
=
8.cccL
16bbJk
16aaLL
16bb
16aa
16bbJJ
!!linebreak:original
=
16ggLL
16aa
16gg
16ffJJ
8eeL
8eeJ
!!linebreak:original
=
16ffLL
16gg
16ff
16eeJJ
8ddL
8ggJ
=
4.cc
8gg
=||
8.cccL
16bbJk
16aaLL
16bb
16aa
16bbJJ
=
16ggLL
16aa
16gg
16ffJJ
8eeL
8eeJ
=
16ffLL
16gg
16ff
16eeJJ
8ddL
8ddJ
=
16eeLL
16ff
16ee
16ddJJ
8ccL
8ggJ
=
8.cccL
16bbJk
16aaLL
16bb
16aa
16bbJJ
!!linebreak:original
=
16ggLL
16aa
16gg
16ffJJ
8eeL
8eeJ
!!linebreak:original
=
16ffLL
16gg
16ff
16eeJJ
8ddL
8ggJ
=
4.cc
16ccLL
16ddJJ
=||
8eeL
16eeL
16ddJJ
8eeL
8ffJ
=
2gg
=
4aa
8aaL
8bbJ
=
4.gg
16ccLL
16ddJJ
=
8eeL
16eeL
16ddJJ
8eeL
8ffJ
=
2gg
=
16aaLL
16gg
16ff
16eeJJ
8ddL
8ggJ
!!linebreak:original
=
4.cc
16ccLL
16ddJJ
=||
8eeL
16eeL
16ddJJ
8eeL
8ffJ
=
2gg
=
4aa
8aaL
8bbJ
=
4.gg
16ccLL
16ddJJ
=
8eeL
16eeL
16ddJJ
8eeL
8ffJ
=
2gg
=
16aaLL
16gg
16ff
16eeJJ
8ddL
8ggJ
=
4.cc
8gg
=||
4.cc
8r
==
*-
!!!system-decoration: s1,s2
